X:19038
T:Seneca Square Dance
T:Waiting for the Federals
R:March
C:Trad.
O:USA
Z:Paul Hardy's Session Tunebook 2015 (see www.paulhardy.net). Creative Commons cc by-nc-sa licenced.
M:2/2
L:1/4
Q:1/4=180
K:G
"G"B2 BA/B/|dB B/A/G|"Em"B2 d>B|"C"A/B/A/G/ ED|"G"B2 BA/B/|dB B/A/G|"D"A/B/A/G/ EF|"G"G2 G2:|
|:"G"g2 g>e|d B2 B/d/|"Em"g2 g/f/g/a/|"C"b/ee/ ef|"G"g/a/b/a/ g>e|"Em"d/g/e/d/ B/A/G|"D"A/B/A/G/ EF|"G"G2 G2:|

